X:1
T:Title
%%score { ( 1 3 ) | ( 2 4 ) }
L:1/8
M:4/4
K:Bb
V:1 treble nm="Grand Piano"
V:3 treble 
V:2 bass 
V:4 bass 
V:1
 z4 z2[Q:1/4=100] (3FGA | B2 A2 G2 F2 | D>[DG] [DG]>[DG] [DG]2 (3FGA | B2 A2 G2 F2 | %4
 E>G G>G G2 (3FAc | e6 z2 | d6 z2 | [=Ec]2 [EG]2 [EA]2 [EB]2 |[M:3/4] d2 c2 A2 |[M:1/4] (3FGA | %10
[M:4/4] B2 A2 G2 F2 | D>[DG] [DG]>[DG] [DG]2 (3FGA | B2 A2 G2 F2 | E>G G>G G2 (3FAc | e6 z2 | %15
 d6 z2 | [=Ec]2 (3[EG][EA][EB] A2 (3FAc |[M:3/4] [DB]>A [DB]>A [DB]2 |[M:1/4] (3Bcd | %19
[M:6/8][Q:1/4=116] e3 e3 | e3 B3 | [B,EG]2 [E^F] [B,EG]2 [EF] | .[B,EG]3 Bcd | e2- [Ge] e2- [Ge] | %24
 .G3 B3 | [B,D_A]2 [=EG] [B,FA]2 [EG] | .[B,D_A]3 Bde | [D_Af]3 [_DG=e]3 | [D_Af]3 [DAc]2 [Ad] | %29
 [Ge]3 [Fd]3 | [Ge]3 [GB]2 [Gc] | z3 [G_d]3 | [^Fd]2 c B2 A | G2 c B2 A | z _A=A Bcd | %35
 e2- [Ge] e2- [Ge] | .G3 B3 | [B,EG]2 [E^F] [B,EG]2 [EF] | .[B,EG]3 Bcd | e2- [Ge] e2- [Ge] | %40
 .G3 B3 | [B,D_A]2 [=EG] [B,FA]2 [EG] | .[B,D_A]3 Bde | [D_Af]3 [_DG=e]3 | [D_Af]3 [DAc]2 [Ad] | %45
 [Ge]3 [Fd]3 | [Ge]3 [GB]2 [G=B] | c3 e3 | d2 B c2 [Fd] | [Ge]2 c B2 G |[M:3/8] E2 z | %51
[M:1/4] (3FGA |[M:4/4] B2 A2 G2 F2 | D>[DG] [DG]>[DG] [DG]2 (3FGA | B2 A2 G2 F2 | %55
 E>G G>G G2 (3FAc | e6 z2 | d6 z2 | [=Ec]2 (3[EG][EA][EB] A2 (3FAc | %59
[M:7/4] [DB]>A[DB]>A [DB]2 z2 z2 z4 |] %60
V:2
 z4 z2 (3F,G,A, | B,2 A,2 G,2 F,2 | [B,,F,]>[B,,B,] [B,,B,]>[B,,B,] [B,,B,]2 (3F,G,A, | %3
 B,2 A,2 G,2 F,2 | [F,A,]>[F,A,E] [F,A,E]>[F,A,E] [F,A,E]2 z2 | z z/ [F,C]/ [A,C]>C [F,C]2 z2 | %6
 z z/ [B,,B,]/ [D,B,]>[F,B,] B,2 (3D,[C,A,][B,,B,] | [C,B,]2 [C,C]2 [C,C]2 [C,C]2 | %8
[M:3/4] [F,A,E]2 [F,A,E]2 [F,CE]2 |[M:1/4] (3F,G,A, |[M:4/4] B,2 A,2 G,2 F,2 | %11
 [B,,F,]>[B,,B,] [B,,B,]>[B,,B,] [B,,B,]2 (3F,G,A, | B,2 A,2 G,2 F,2 | %13
 [F,A,]>[F,A,E] [F,A,E]>[F,A,E] [F,A,E]2 z2 | z z/ [F,C]/ [A,C]>C [F,C]2 z2 | %15
 z z/ [B,,B,]/ [D,B,]>[F,B,] B,2 (3D,[C,A,][B,,B,] | %16
 [C,B,]2 (3[C,C][C,C][C,C] [F,CE]2 (3[F,A,E][F,CE][F,A,E] | %17
[M:3/4] [B,,B,]>[F,C] [B,,F,]>[F,C] [B,,F,]2 |[M:1/4] z2 |[M:6/8] [E,B,]2 [E,B,] [B,,B,]2 [B,,B,] | %20
 [E,B,]2 [G,B,][K:treble] [B,G]2 [G,B,] | z2 A, z2 A, | E,2 C B,2 G, | %23
 [E,B,]2 [E,B,] [B,,B,]2 [B,,B,] | [E,B,]2 [E,B,] [G,B,E]2 [G,B,] | z2 B, z2 B, | F,2 E, D,2 C, | %27
 B,,3 B,,3 | B,,3 B,,2 [B,,B,] | [E,B,]3 [B,,B,]3 | [E,B,]3 [E,B,]2 [E,B,] | [D,B,]3 .[E,B,]3 | %32
 [D,A,]2 [C,C] [B,,B,]2 [A,,A,] | [G,,G,]2 [C,C] [B,,B,]2 [A,,A,] | .[G,,G,]3 z3 | %35
 [E,B,]2 [E,B,] [B,,B,]2 [B,,B,] | [E,B,]2 [G,B,][K:treble] [B,G]2 [G,B,] | z2 A, z2 A, | %38
 E,2 C B,2 G, | [E,B,]2 [E,B,] [B,,B,]2 [B,,B,] | [E,B,]2 [E,B,] [G,B,E]2 [G,B,] | z2 B, z2 B, | %42
 F,2 E, D,2 C, | B,,3 B,,3 | B,,3 B,,2 [B,,B,] | [E,B,]3 [B,,B,]3 | [E,B,]3 [E,E]2 [E,E] | %47
 [_A,E_A]3 [=A,CF]3 | [B,F]2 [B,D] [B,E]2[K:bass] [B,,B,] | [E,B,]2 [C,C] [B,,B,]2 [G,,G,] | %50
[M:3/8] [E,,E,]2 z |[M:1/4] (3F,G,A, |[M:4/4] B,2 A,2 G,2 F,2 | %53
 [B,,F,]>[B,,B,] [B,,B,]>[B,,B,] [B,,B,]2 (3F,G,A, | B,2 A,2 G,2 F,2 | %55
 [F,A,]>[F,A,E] [F,A,E]>[F,A,E] [F,A,E]2 z2 | z z/ [F,C]/ [A,C]>C [F,C]2 z2 | %57
 z z/ [B,,B,]/ [D,B,]>[F,B,] B,2 (3D,[C,A,][B,,B,] | %58
 [C,B,]2 (3[C,C][C,C][C,C] [F,CE]2 (3[F,A,E][F,CE][F,A,E] | %59
[M:7/4] [B,,B,]>[F,C][B,,F,]>[F,C] [B,,F,]2 z2 z2 z4 |] %60
V:3
 x8 | x8 | x8 | x8 | x8 | z z/ A/ A>A A2 (3FAc | z z/ F/ F>F F2 (3[B,FB][Fc][Fd] | x8 |[M:3/4] x6 | %9
[M:1/4] x2 |[M:4/4] x8 | x8 | x8 | x8 | z z/ A/ A>A A2 (3FAc | z z/ F/ F>F F2 (3[B,FB][Fc][Fd] | %16
 x8 |[M:3/4] x6 |[M:1/4] x2 |[M:6/8] G2 G G2 G | G2 G z2 E | x6 | x6 | .G3 .G3 | e2- [Ge] z2 E | %25
 x6 | x6 | x6 | x6 | x6 | x6 | [Gd]3 z2 G, | x6 | x6 | .G3 z3 | .G3 .G3 | e2- [Ge] z2 E | x6 | x6 | %39
 .G3 .G3 | e2- [Ge] z2 E | x6 | x6 | x6 | x6 | x6 | x6 | x6 | x6 | x6 |[M:3/8] x3 |[M:1/4] x2 | %52
[M:4/4] x8 | x8 | x8 | x8 | z z/ A/ A>A A2 (3FAc | z z/ F/ F>F F2 (3[B,FB][Fc][Fd] | x8 | %59
[M:7/4] x14 |] %60
V:4
 x8 | x8 | x8 | x8 | x8 | x8 | x8 | x8 |[M:3/4] x6 |[M:1/4] x2 |[M:4/4] x8 | x8 | x8 | x8 | x8 | %15
 x8 | x8 |[M:3/4] x6 |[M:1/4] x2 |[M:6/8] x6 | x3[K:treble] x3 | E,3 B,,3 | x6 | x6 | x6 | %25
 F,3 B,,3 | x6 | x6 | x6 | x6 | x6 | x6 | x6 | x6 | x6 | x6 | x3[K:treble] x3 | E,3 B,,3 | x6 | %39
 x6 | x6 | F,3 B,,3 | x6 | x6 | x6 | x6 | x6 | x6 | x5[K:bass] x | x6 |[M:3/8] x3 |[M:1/4] x2 | %52
[M:4/4] x8 | x8 | x8 | x8 | x8 | x8 | x8 |[M:7/4] x14 |] %60

